src/assets/images/infinity.svg

<!DOCTYPE svg PUBLIC "-//W3C//DTD SVG 1.1//EN" "http://www.w3.org/Graphics/SVG/1.1/DTD/svg11.dtd">
<!-- Uploaded to: SVG Repo, www.svgrepo.com, Transformed by: SVG Repo Mixer Tools -->
<svg width="256px" height="256px" viewBox="0 -9.5 38 38" version="1.1" xmlns="http://www.w3.org/2000/svg" xmlns:xlink="http://www.w3.org/1999/xlink" fill="#000000">
<g id="SVGRepo_bgCarrier" stroke-width="0"/>
<g id="SVGRepo_tracerCarrier" stroke-linecap="round" stroke-linejoin="round"/>
<g id="SVGRepo_iconCarrier"> <!-- Uploaded to: SVG Repo, www.svgrepo.com, Transformed by: SVG Repo Mixer Tools --> <title>infinity</title> <desc>Created with Sketch.</desc> <defs> </defs> <g id="Vivid.JS" stroke="none" stroke-width="1" fill="none" fill-rule="evenodd"> <g id="Vivid-Icons" transform="translate(-744.000000, -262.000000)"> <g id="Icons" transform="translate(37.000000, 169.000000)"> <g id="infinity" transform="translate(702.000000, 78.000000)"> <g transform="translate(5.000000, 15.000000)" id="Shape"> <path d="M28.952,19 C26.1276534,19.0032293 23.4641032,17.6862517 21.752,15.44 L16.288,10 L21.757,4.56 C24.3055147,1.16357777 28.8771268,0.00338606597 32.7368197,1.77352223 C36.5965125,3.54365839 38.6999612,7.7651731 37.7887545,11.9124992 C36.8775478,16.0598252 33.1982329,19.0108122 28.952,19 Z M28.852,4.6 C27.1341069,4.59401992 25.5099216,5.38248806 24.452,6.736 L21.112,10 L24.454,13.264 C25.5118239,14.6176328 27.1360723,15.4061316 28.854,15.4 C30.7832342,15.3996428 32.5657296,14.3700785 33.5300373,12.699134 C34.494345,11.0281895 34.4939638,8.96972114 33.5290373,7.29913394 C32.5641108,5.62854674 30.7812342,4.59964269 28.852,4.6 Z" fill="#5c65c0"> </path> <path d="M16.243,15.44 C13.907031,18.5187667 9.86628593,19.7625063 6.20336868,18.5301943 C2.54045143,17.2978824 0.0731743396,13.8646547 0.0731743396,10 C0.0731743396,6.13534534 2.54045143,2.70211764 6.20336868,1.46980566 C9.86628593,0.237493682 13.907031,1.48123332 16.243,4.56 L21.712,10 L16.243,15.44 Z M13.543,6.74 C12.4850784,5.38648806 10.8608931,4.59801992 9.143,4.604 C6.16066235,4.604 3.743,7.02166235 3.743,10.004 C3.743,12.9863376 6.16066235,15.404 9.143,15.404 C10.8609277,15.4101316 12.4851761,14.6216328 13.543,13.268 L16.888,10 L13.543,6.74 Z" fill="#6f95ff"> </path> </g> </g> </g> </g> </g> </g>
</svg>

<svg xmlns="http://www.w3.org/2000/svg" width="256" height="256" viewBox="0 -9.5 38 38"><g fill="none" fill-rule="evenodd"><path fill="#5c65c0" d="M28.952 19a9.04 9.04 0 0 1-7.2-3.56L16.288 10l5.469-5.44A9.024 9.024 0 1 1 28.952 19m-.1-14.4a5.56 5.56 0 0 0-4.4 2.136L21.112 10l3.342 3.264a5.56 5.56 0 0 0 4.4 2.136 5.4 5.4 0 1 0-.002-10.8"/><path fill="#6f95ff" d="M16.243 15.44a9 9 0 1 1 0-10.88L21.712 10zm-2.7-8.7a5.56 5.56 0 0 0-4.4-2.136 5.4 5.4 0 1 0 0 10.8 5.56 5.56 0 0 0 4.4-2.136L16.888 10z"/></g></svg>
